style-guide/assets/xd-icons-bookmark-small.svg

<svg viewBox="0 0 18 18" xmlns="http://www.w3.org/2000/svg">
  <path d="M14 14.502l-4.616-1.916a1.004 1.004 0 0 0-.768 0L4 14.502V3h10v11.502zM15 1H3a1 1 0 0 0-1 1v14a1.002 1.002 0 0 0 1.384.924L9 14.592l5.616 2.332a1.007 1.007 0 0 0 .94-.092c.277-.185.444-.498.444-.832V2a1 1 0 0 0-1-1zM7 9h1v1a1 1 0 1 0 2 0V9h1a1 1 0 1 0 0-2h-1V6a1 1 0 1 0-2 0v1H7a1 1 0 1 0 0 2" fill="#000" fill-rule="evenodd"/>
</svg>

<?xml version="1.0" encoding="UTF-8"?>
<svg width="18px" height="18px" viewBox="0 0 18 18" version="1.1" xmlns="http://www.w3.org/2000/svg" xmlns:xlink="http://www.w3.org/1999/xlink">
    <!-- Generator: Sketch 51.3 (57544) - http://www.bohemiancoding.com/sketch -->
    <title>bookmark</title>
    <desc>Created with Sketch.</desc>
    <defs></defs>
    <g id="bookmark" stroke="none" stroke-width="1" fill="none" fill-rule="evenodd">
        <path d="M14,14.502 L9.384,12.586 C9.261,12.535 9.13,12.51 9,12.51 C8.87,12.51 8.739,12.535 8.616,12.586 L4,14.502 L4,3 L14,3 L14,14.502 Z M15,1 L3,1 C2.447,1 2,1.447 2,2 L2,16 C2,16.334 2.167,16.647 2.444,16.832 C2.723,17.018 3.073,17.051 3.384,16.924 L9,14.592 L14.616,16.924 C14.74,16.975 14.87,17 15,17 C15.194,17 15.389,16.943 15.556,16.832 C15.833,16.647 16,16.334 16,16 L16,2 C16,1.447 15.553,1 15,1 Z M7,9 L8,9 L8,10 C8,10.553 8.447,11 9,11 C9.553,11 10,10.553 10,10 L10,9 L11,9 C11.553,9 12,8.553 12,8 C12,7.447 11.553,7 11,7 L10,7 L10,6 C10,5.447 9.553,5 9,5 C8.447,5 8,5.447 8,6 L8,7 L7,7 C6.447,7 6,7.447 6,8 C6,8.553 6.447,9 7,9" id="Fill-1" fill="#000000"></path>
    </g>
</svg>
